files/icons/weight.svg

<svg width="58" height="66" viewBox="0 0 58 66" fill="none" xmlns="http://www.w3.org/2000/svg">
<path d="M57.5366 39.081C56.8514 35.277 54.7502 31.3811 51.9941 28.4974C54.2325 24.6782 56.7296 21.4724 57.1864 16.8249C57.5671 12.8676 56.8971 8.02061 54.2934 4.87623C51.7505 1.77787 48.3093 0.811547 44.4874 0.550793C39.4017 0.198009 34.2551 0.105978 29.1542 0.167332C21.3734 0.259363 11.2629 -1.42787 4.88299 4.21668C1.80722 6.94692 0.299783 11.4411 0.0257039 15.4598C-0.339735 20.7515 3.26897 24.7395 5.9184 28.9269C3.37556 32.2707 1.74631 36.3354 0.908848 40.4614C-0.263602 46.2593 0.0104769 50.6922 2.3706 56.1987C3.61918 59.1283 5.8575 62.6868 8.53738 64.5121C10.3798 65.7698 12.6486 65.7238 14.7803 65.8005C21.343 66.0613 27.9209 65.9999 34.4835 65.8926C38.7165 65.8159 43.924 66.4601 48.0657 65.279C52.1464 64.1286 54.202 59.3737 55.7703 55.7999C57.9934 50.7228 58.4959 44.4954 57.5366 39.081ZM8.7201 3.72585C14.5823 0.734854 22.7286 1.94659 29.1542 1.8699C32.3823 1.82388 35.6255 1.85456 38.8536 2.00795C43.315 2.20734 48.5377 1.74719 52.0703 5.01428C54.9938 7.71385 55.8008 12.3614 55.5419 16.1807C55.2374 20.6748 52.8621 23.7118 50.7151 27.2857C50.441 27.0403 50.1669 26.7949 49.8776 26.5801C48.1418 25.261 46.4364 24.1873 44.6854 23.2977C47.1521 19.4017 50.913 13.7879 45.8121 10.168C40.8178 6.60948 31.9559 8.08197 26.2916 8.12798C23.8097 8.15866 21.3886 8.3734 18.9219 8.64949C16.4857 8.91024 13.3033 8.81821 11.2629 10.3674C6.22294 14.1867 9.11599 19.6472 12.0395 23.5585C11.5218 23.8499 11.0041 24.1413 10.5168 24.4788C9.22258 25.3684 8.08058 26.3961 7.0604 27.5311C4.63937 23.8039 1.6245 20.2454 1.80722 15.5671C2.00516 10.6895 4.31961 5.9806 8.7201 3.72585ZM29.4131 19.8466C24.0381 19.8926 18.4651 20.4448 13.5774 22.7455C11.5066 20.0766 8.87237 16.5948 11.0955 13.1897C12.8313 10.5208 15.8005 10.6895 18.526 10.3981C21.5866 10.076 24.5558 9.84589 27.6316 9.83055C31.895 9.81521 36.4021 9.52378 40.6503 10.1373C43.6652 10.5668 46.2994 11.8399 46.4517 15.3524C46.5735 18.1593 44.5483 20.2914 43.117 22.5461C38.9297 20.6902 34.5444 19.9079 29.4131 19.8466ZM56.151 46.2133C55.9531 51.1523 54.339 55.7538 51.7353 59.9259C48.5834 64.9722 42.4927 63.9906 37.3005 64.098C31.1032 64.236 24.8908 64.2974 18.6935 64.1747C14.6128 64.098 10.9584 64.4507 7.77605 61.3677C4.86777 58.5454 3.43647 54.5574 2.29447 50.7535C0.299783 44.1273 3.46692 34.4794 7.71514 29.341C13.0597 22.8682 21.5409 21.6258 29.4131 21.5645C37.0873 21.6565 44.6549 23.5891 50.3497 29.1416C54.9481 33.6051 56.3946 40.0166 56.151 46.2133Z" fill="#2B3541"/>
<path d="M30.8749 30.2921C26.4135 29.6633 22.2567 32.2555 21.1147 36.6883C20.0031 41.0137 21.6781 45.3238 26.2765 46.2595C30.6161 47.1337 36.6458 45.7073 37.5442 40.7223C38.3512 36.2435 35.3516 31.1971 30.8749 30.2921ZM28.0123 44.6949C18.9373 44.3422 22.2262 30.7983 30.4181 31.9487C33.6157 32.5929 35.7931 35.6913 35.9454 38.9277C36.1738 43.5292 31.7581 44.8483 28.0123 44.6949Z" fill="#2B3541"/>
<path d="M16.2267 26.5801C11.5217 29.1722 8.15661 33.4823 6.74053 38.6821C6.45123 39.7558 8.0957 40.2159 8.38501 39.1422C9.69449 34.3566 12.755 30.4607 17.0946 28.0679C18.0691 27.531 17.2012 26.0432 16.2267 26.5801Z" fill="#2B3541"/>
<path d="M6.60349 41.8879C5.50717 41.8879 5.50717 43.6058 6.60349 43.6058C7.6998 43.6058 7.6998 41.8879 6.60349 41.8879Z" fill="#2B3541"/>
</svg>

<svg xmlns="http://www.w3.org/2000/svg" width="58" height="66" fill="none" viewBox="0 0 58 66"><path fill="#2b3541" d="M57.537 39.081c-.686-3.804-2.787-7.7-5.543-10.584 2.239-3.819 4.736-7.025 5.192-11.672.381-3.957-.289-8.804-2.893-11.949C51.751 1.778 48.31.812 44.487.551 39.402.198 34.255.106 29.154.167c-7.78.092-17.891-1.595-24.271 4.05C1.807 6.947.3 11.44.026 15.46c-.366 5.291 3.243 9.28 5.892 13.467C3.376 32.27 1.746 36.335.908 40.46-.263 46.26.01 50.692 2.372 56.2c1.248 2.93 3.487 6.488 6.166 8.313 1.843 1.258 4.112 1.212 6.243 1.288 6.563.261 13.14.2 19.704.093 4.233-.077 9.44.567 13.582-.614 4.08-1.15 6.136-5.905 7.704-9.48 2.223-5.076 2.726-11.304 1.767-16.718M8.72 3.726C14.582.735 22.73 1.946 29.154 1.87a158 158 0 0 1 9.7.138c4.461.2 9.684-.26 13.216 3.006 2.924 2.7 3.73 7.347 3.472 11.167-.305 4.494-2.68 7.53-4.827 11.105a12 12 0 0 0-.837-.706c-1.736-1.319-3.442-2.393-5.193-3.282 2.467-3.896 6.228-9.51 1.127-13.13-4.994-3.559-13.856-2.086-19.52-2.04-2.482.03-4.903.245-7.37.521-2.436.261-5.619.17-7.66 1.718-5.04 3.82-2.146 9.28.777 13.191-.517.292-1.035.583-1.522.92a19.5 19.5 0 0 0-3.457 3.053c-2.42-3.727-5.435-7.286-5.253-11.964C2.005 10.69 4.32 5.981 8.72 3.726m20.693 16.12c-5.375.047-10.948.599-15.836 2.9-2.07-2.67-4.705-6.151-2.482-9.556 1.736-2.67 4.705-2.5 7.431-2.792 3.06-.322 6.03-.552 9.106-.567 4.263-.016 8.77-.307 13.018.306 3.015.43 5.65 1.703 5.802 5.215.122 2.807-1.904 4.94-3.335 7.194-4.187-1.856-8.573-2.638-13.704-2.7m26.738 26.367c-.198 4.94-1.812 9.54-4.416 13.713-3.152 5.046-9.242 4.065-14.434 4.172-6.198.138-12.41.2-18.607.077-4.081-.077-7.736.276-10.918-2.807-2.908-2.823-4.34-6.81-5.482-10.614C.3 44.127 3.467 34.479 7.715 29.34c5.345-6.473 13.826-7.715 21.698-7.777 7.674.093 15.242 2.025 20.937 7.578 4.598 4.463 6.045 10.875 5.801 17.071"/><path fill="#2b3541" d="M30.875 30.292c-4.462-.629-8.618 1.963-9.76 6.396-1.112 4.326.563 8.636 5.162 9.572 4.34.874 10.369-.553 11.267-5.538.807-4.479-2.192-9.525-6.67-10.43m-2.863 14.403c-9.075-.353-5.786-13.897 2.406-12.746 3.198.644 5.375 3.742 5.527 6.979.229 4.601-4.187 5.92-7.933 5.767M16.227 26.58c-4.705 2.592-8.07 6.902-9.486 12.102-.29 1.074 1.355 1.534 1.644.46 1.31-4.785 4.37-8.681 8.71-11.074.974-.537.106-2.025-.868-1.488M6.603 41.888c-1.096 0-1.096 1.718 0 1.718s1.097-1.718 0-1.718"/></svg>
